img/core-features-1.svg

<svg width="25" height="21" viewBox="0 0 25 21" fill="none" xmlns="http://www.w3.org/2000/svg">
<path fill-rule="evenodd" clip-rule="evenodd" d="M15.217 14.9625C15.3848 14.7923 15.4688 14.5914 15.4688 14.359V12.2147H24.3749V18.648C24.3749 19.2371 24.1674 19.7423 23.752 20.162C23.3368 20.5821 22.8375 20.7919 22.2545 20.7919H2.74555C2.16236 20.7919 1.66308 20.5821 1.24785 20.162C0.832464 19.7423 0.624901 19.2371 0.624901 18.648V12.2147H9.53115V14.359C9.53115 14.5914 9.61514 14.7923 9.78302 14.9625C9.9509 15.1319 10.1497 15.2171 10.3795 15.2171H14.6206C14.8502 15.2171 15.0492 15.1319 15.217 14.9625ZM14.1966 12.2147H10.8034V13.93H14.1966V12.2147ZM23.752 4.2674C23.3368 3.84686 22.8375 3.63703 22.2545 3.63703H17.5891V1.49273C17.5891 1.1352 17.4656 0.831725 17.2181 0.581043C16.9709 0.331621 16.6703 0.206055 16.317 0.206055H8.68307C8.32965 0.206055 8.02932 0.331621 7.78189 0.581043C7.53446 0.831297 7.41078 1.1352 7.41078 1.49273V3.63703H2.74556C2.16237 3.63703 1.6631 3.84686 1.24787 4.2674C0.832481 4.68663 0.624918 5.19142 0.624918 5.78134V10.928H24.3749V5.78134C24.3749 5.19142 24.1674 4.68663 23.752 4.2674ZM15.8929 3.63703H9.10716V1.92133H15.8929V3.63703Z" fill="#FF4550"/>
</svg>

<svg width="25" height="21" fill="none" xmlns="http://www.w3.org/2000/svg"><path fill-rule="evenodd" clip-rule="evenodd" d="M15.217 14.963a.83.83 0 0 0 .252-.604v-2.144h8.906v6.433c0 .59-.208 1.094-.623 1.514a2.03 2.03 0 0 1-1.497.63H2.744a2.03 2.03 0 0 1-1.497-.63 2.076 2.076 0 0 1-.623-1.514v-6.433H9.53v2.144a.83.83 0 0 0 .252.604c.168.169.367.254.597.254h4.24c.23 0 .43-.085.597-.255Zm-1.02-2.748h-3.394v1.715h3.394v-1.715Zm9.555-7.948a2.029 2.029 0 0 0-1.497-.63h-4.666V1.493c0-.358-.123-.661-.37-.912a1.222 1.222 0 0 0-.902-.375H8.683c-.353 0-.654.126-.901.375-.248.25-.371.554-.371.912v2.144H2.746c-.584 0-1.083.21-1.498.63-.416.42-.623.924-.623 1.514v5.147h23.75V5.781c0-.59-.208-1.094-.623-1.514Zm-7.86-.63H9.108V1.921h6.786v1.716Z" fill="#FF4550"/></svg>
